!!!!SEGMENT: pl-wumfc--r265_paderewski-ignacy-jan--keyboard-piece.krn
!!!cenid: 18xx:3152
!!!COM: Paderewski, Ignacy Jan
!!!COM-rismid: pe30029943
!!!CDT: 1860/11/18-1941/06/29
!!!CNT: Polish
!!!OTL: [Keyboard piece]
!!!PDT:
!!!AGN:
!!!SMS-siglum: PL-Wumfc
!!!SMS-shelfmark: R265
!!!SMS-shelfwork: W
!!!SMS-variant:
!!!SMS-altvar:
!!!NIFC-rismid: 1001156663
!!!URL-scan: http://repozytorium.nifc.pl/skany/pl-wumfc--r265
!!!ONB-nifc:
!!!key: E
**kern	**kern
*group1	*group1
*part2	*part1
*staff2	*staff1
*I"[Piano]	*I"[Piano]
*Ipiano	*Ipiano
*ICklav	*ICklav
*clefF4	*clefG2
*k[f#c#g#d#]	*k[f#c#g#d#]
*a:	*a:
*M4/4	*M4/4
*met(c)	*met(c)
*>[A,A,B,B,C,C1,C,C2,D,D,E,E,F]	*>[A,A,B,B,C,C1,C,C2,D,D,E,E,F]
=1	=1
*>A	*>A
2E\	2B/ 2e/ 2g#/
4AA\	4c#/ 4e/ 4a/
4AA\	4c#/ 4e/ 4a/
=2	=2
*	*^
2BB\	4f#/	2B\ 2d#\
.	8g#/L	.
.	8a/J	.
2GG#\	4b/	2B\ 2d#\
.	4g#/	.
=3	=3	=3
*^	*	*
2C#\	2ryy	2G#/ 2c#/ 2e/	2ryy
4F#/	4FF#\	4a/	2c#\
4E/	4GG#\	4g#/	.
=4	=4	=4	=4
[>2F#/	4AA\	4.f#/	2c#\
.	4AA#X\	.	.
.	.	8e/	.
4F#/]	2BB\	4d#/	4B\
4r	.	4B/	4r
*v	*v	*	*
*	*v	*v
=5	=5
2E\	2B/ 2e/ 2g#/
4AA\	4c#/ 4e/ 4a/
4AA\	4c#/ 4e/ 4a/
=6	=6
*^	*^
2BB\	2ryy	4f#/	2B\ 2d#\
.	.	8g#/L	.
!	!	!LO:TX:t=P:problem:łamanie systemu	!
.	.	8a/J	.
2B/	4GG#\	4b/	4d#\
.	4GGn\	4cc#/	4e\
!!LO:LB:g=original
=7	=7	=7	=7
2B/	4FF#\	2dd#/	2f#\
.	4F#\	.	.
4B/	4E\	4ff#/	4g#\
4B/	4C#\	4ee/	4gn\
=8	=8	=8	=8
4B/	4FF#\	4.cc#/	4gn\
4A#X/	4F#\	.	8f#\L
.	.	8dd#/	8e\J
2B/	2BB\	2b/	2d#\
=9:|!|:	=9:|!|:	=9:|!|:	=9:|!|:
*>B	*>B	*>B	*>B
2B/	2G#\	2ee/	2e\
4B/	2G#\	4dd#/	4e\
4B#X/	.	4dd#/	4e\
=10	=10	=10	=10
4c#/	4A\	4.cc#/	4e\
4dn/	4E#X\	.	4g#\
.	.	8b/	.
2c#/	4F#\	2a/	2f#\
.	4E#\	.	.
=11	=11	=11	=11
2G#/	2En\	2cc#/	2c#\
4G#/	4E#X\	4b/	4c#\
4G#/	4E#\	4b/	4c#\
!!LO:LB:g=original
=12	=12	=12	=12
4A/	4F#\	4a/	4c#\
4B/	4G#\	4g#/	4e\
4c#/	4A\	4f#/	4e\
4B/	4B\	4g#/	4d#\
*v	*v	*	*
*	*v	*v
=13	=13
2E\	2B/ 2e/ 2g#/
4AA\	4c#/ 4e/ 4a/
4AA\	4c#/ 4e/ 4a/
=14	=14
*	*^
2BB\	4f#/	2B\ 2d#\
.	8g#/L	.
.	8a/J	.
2GG#\	4b/	2B\ 2d#\
.	4g#/	.
=15	=15	=15
*^	*	*
2C#\	2ryy	2c#/ 2e/	2G#\
!	!	!LO:TX:t=P:problem:cc poprawione ołówkiem na a	!
4F#/	4FF#\	4a/	2c#\
4E/	4GG#\	4g#/	.
=16	=16	=16	=16
.	.	(<8qg#/	.
4F#/	4AA\	4.f#/)	4c#\
4A/	4BB\	.	4d#\
.	.	8e/	.
2G#/	2EE\	2e/	2B\
*v	*v	*	*
*	*v	*v
!!LO:LB:g=original
=17||	=17||
*k[]	*k[]
*M2/4	*M2/4
8E\	8e/
=18	=18
8A\L	8c/L 8e/ 8a/
8A\	8c/J 8e/ 8a/
8E\	8e/L 8g/ 8b/
8E\J	8e/J 8g/ 8b/
=19	=19
.	(<8qdd/
4C\	4e/) 4g/ 4cc/
8D\L	8d/L 8f/ 8b/
8D#X\J	8c/J 8f/ 8a/
=20	=20
*	*^
(>8E\L	8B/L 8e/ 8g#X/	4ryy
8C\	8A/ 8e/ 8a/	.
8Dn\	8d/ 8f/	4A\ 4d\
8BB\J	16gn/L	.
.	16f/JJ	.
*	*v	*v
=21	=21
8E\L	4.G#X/ 4.B/ 4.e/
8BB\	.
8EE\J)	.
8E\	8e/
=22	=22
8A\L	8c/L 8e/ 8a/
8A\J	8c/J 8e/ 8a/
8G\L	8d/L 8g/ 8b/
8G\J	8d/J 8g/ 8b/
=23	=23
.	(<8qdd/
4C\	4e/) 4g/ 4cc/
8D\L	8d/L 8f#X/ 8b/
8D#X\J	8c/J 8f#/ 8a/
!!LO:LB:g=original
=24	=24
8E\L	8B/L 8e/ 8g/
8GG\	8B/ 8e/ 8a/
8AA\	8c/ 8e/ 8a/
8BB\J	16A/L 16d/ 16f#X/
.	16g/JJ
=25	=25
8E\L	4.G/ 4.B/ 4.e/
8BB\J	.
8EE\	.
8G\	(<8g/
=26:|!|:	=26:|!|:
*>C	*>C
*^	*^
8C::\L 8G::\ 8c::\	4ryy	8e::/L) 8g::/ 8ee::/	4ryy
8C::\J 8G::\ 8c::\	.	8e::/J 8g::/ 8ee::/	.
8c/L	4F\	8a/L	4e\
16B/L	.	16b/L	.
16A/JJ	.	16cc/JJ	.
*v	*v	*	*
*	*v	*v
=27	=27
(>8BB\L 8F\ 8B\	(<8d/L 8a/ 8dd/
.	(<8qdd/
8E\J	16d/L) 16g#X/ 16cc/
.	16b/JJ
8GG\)	8c/) 8a/ 8cc/
8E\	8e/
=28	=28
*^	*^
8AA-\L 8E\ 8A-\	4ryy	8c/L 8e/ 8cc/	4ryy
8AA-\J 8E\ 8A-\	.	8c/J 8e/ 8cc/	.
8A-/L	4D\	8f/L	4c\
16G/L	.	16g/L	.
16F/JJ	.	16a#X/JJ	.
*v	*v	*	*
*	*v	*v
=29	=29
(>8GG\L 8D-\ 8G\	(<8B/L 8f/ 8b/
.	(8qb/
8C\J	16B/L) 16e/ 16a/
.	16g/JJ
!LO:TX:a:i:t=rit:rj	!
8FF\) 8F\	8A-/) 8f/ 8a/
(>8E\	(<8d/ 8f/ 8g#X/
!!LO:LB:g=original
=30	=30
!LO:TX:t=P:problem:brak zakończenia łuku	!LO:TX:t=P:problem:brak zakończenia łuku
8A\L)	8c/L) 8e/ 8a/
8A\J	8c/J 8e/ 8a/
8G\L	8d/L 8g/ 8b/
8G\J	8d/J 8g/ 8b/
=31	=31
.	(<8qdd/
4C\	4e/) 4g/ 4cc/
8D\L	8d/L 8f/ 8b/
8D#X\J	8c/J 8f/ 8a/
=32	=32
8E\L	8c/L 8e/ 8a/
8C\	8e/ 8a/ 8cc/
8BB\	8f/ 8a/ 8dd/
8E\J	16d/L 16g#X/ 16b/
.	16cc/JJ
=33	=33
*>C1	*>C1
!!LO:TX:a:t=1 volta
(>8A\L	4.c/ 4.e/ 4.a/
8E\	.
8AA\J)	.
(>8G\	(<8g/
=34||	=34||
*>C2	*>C2
!	!LO:TX:t=P:problem:po prawej dopisany takt ołówkiem
!!LO:TX:a:t=2 volta
8A\L)	2c/) 2e/ 2a/
8E\J	.
4AA\	.
!!LO:PB:g=original
=35||	=35||
*>D	*>D
*k[b-]	*k[b-]
*M3/4	*M3/4
*^	*^
4r	4FF\	4r	4ryy
4A/	2F\	4cc/	2f\
4B-/	.	4dd/	.
=36	=36	=36	=36
4c/	2C\	4g/	4f\
4B-/	.	8a/L	4e\
.	.	8b-/J	.
4A/	4F\	4cc/	4e-X\
=37	=37	=37	=37
4B-/	2.BB-\	4b-/	2.d\
4F#X/	.	4a/	.
4G/	.	4g/	.
=38	=38	=38	=38
4G#X/	4BBn\	4f/	4d\
4A/	2C\	2e/	2c\
4Gn/	.	.	.
=39	=39	=39	=39
4r	4FF\	4r	4ryy
4A/	2F\	4cc/	2f\
4B-/	.	4dd/	.
=40	=40	=40	=40
4e/	2E\	4cc/	2g\
4c/	.	8dd/L	.
.	.	8ee/J	.
4Bn/	4D\	4ff/	4a\
!!LO:LB:g=original
=41	=41	=41	=41
4c/	4C\	4ee/	2.a\
4d/	4BBn\	4dd/	.
4e/	4E\	4cc/	.
=42	=42	=42	=42
4d/	4EE\	4bn/	4g#X\
2c/	2AA\	2a/	2a\
=43:|!|:	=43:|!|:	=43:|!|:	=43:|!|:
*>E	*>E	*>E	*>E
4r	4AA\	4r	4ryy
4c/	4A\	(>4g/ 4ee-X/	4g\
4c/	4A\	4ee-/	4g\
=44	=44	=44	=44
4d/	2D\	4dd/	4f#X\
4c/	.	8g/L	8e\L
.	.	8f#/J 8b-/	8f#\J
4B-/	4GG\	4b-/)	4g\
=45	=45	=45	=45
4r	4GG\	4r	4ryy
4B-/	4G\	(>4dd-X/	4f\
4B-/	4G\	4dd-/	4f\
=46	=46	=46	=46
4c/	2C\	4cc/	4e\
4B-/	.	8f/L	8d\L
.	.	8g/J	8e\J
4A/	4FF\	4a/)	4f\
!!LO:LB:g=original
=47	=47	=47	=47
4r	4FF\	4r	4ryy
4A/	2F\	4cc/	2f\
4B-/	.	4dd/	.
=48	=48	=48	=48
4c/	2C\	4g/	4f\
4B-/	.	8a/L	4e\
.	.	8b-/J	.
4A/	4F#X\	4cc/	4e-X\
=49	=49	=49	=49
4B-/	4G\	4b-/	4d\
4d/	4BB-\	4g/	4f\
4c/	4C\	4a/	4f\
=50	=50	=50	=50
4B-/	4CC\	4g/	4e\
2A/	2FF\	2f/	2f\
*v	*v	*	*
*	*v	*v
!!LO:LB:g=original
=51||	=51||
*M4/4	*M4/4
*met(c)	*met(c)
4D\	4r
4d\	4f/ 4a/ 4dd/
2A\	4e/ 4a/ 4cc/
.	4c/ 4e/ 4a/
=52	=52
*^	*^
4.d/	2B-\	4f/	4d\
.	.	4g/	4e\
8d-X/	.	.	.
4c/	4F\	4a/	4f\
4r	4FF\	4r	4r
=53	=53	=53	=53
4r	4GG\	4r	4r
4G/	4G\	4b-/	2.d\
2A/	4F\	4a/	.
.	4D\	4f/	.
=54	=54	=54	=54
2G/	4G\	4.d/	2B-\
.	4C#X\	.	.
.	.	8e/	.
4F/	4D\	4f/	4A\
4A/	4Cn\	4f/	4e\
=55	=55	=55	=55
4r	2BB-\	4r	4r
2B-/	.	4f/	4d\
.	4BB-\	4dd/	2f\
4c/	4AA\	4cc/	.
=56	=56	=56	=56
4d/	4GG\	4b-/	4f\
8c/L	4C\	8a/L	4e\
!	!	!LO:TX:t=P:problem:łamanie systemu	!
8B-/J	.	8g/J	.
4A/	4FF\	4a/	4f\
4r	4F\	4r	4r
!!LO:LB:g=original
=57	=57	=57	=57
4r	4E\	4r	4r
4r	4D\	4a/	4f\
4e/	4C\	4ee/	2a\
4f/	4BBn\	4dd/	.
=58	=58	=58	=58
4e/	4E\	4cc/	4a\
8d/L	4EE\	8bn/L	4g#X\
8e/J	.	8cc/J	.
2c/	2AA\	2a/	2a\
=59:|!|:	=59:|!|:	=59:|!|:	=59:|!|:
*>F	*>F	*>F	*>F
4r	2F\	4r	4r
4f/	.	4cc/	4a\
4g/	2F\	4.cc/	4g\
4e-X/	.	.	4a\
.	.	8cc#X/	.
=60	=60	=60	=60
4d/	4B-\	4dd/	4b-\
4g/	4A\	4ee/	4cc#X\
2f/	4c\	4ff/	2dd\
.	4c\	4aa/	.
=61	=61	=61	=61
2g/	4B-\	4gg/	4dd\
.	4c\	4ee/	2cc\
2f/	4A\	4ff/	.
.	4B-\	4dd/	4b-\
!!LO:LB:g=original
=62	=62	=62	=62
[>2e/	4G\	4.ee/	4b-\
.	4G#X\	.	4bn\
.	.	8dd/	.
2e/]	2A\	2cc#X/	4a\
.	.	.	4g\
=63	=63	=63	=63
4d/	4D\	4dd/	4f\
4f/	4d\	4dd/	4a\
4e/	2A\	4cc/	4a\
4c/	.	4a/	4e\
=64	=64	=64	=64
4.d/	2B-\	4f/	4d\
.	.	4g/	4e\
8d-X/	.	.	.
4c/	4F\	4a/	4f\
4ryy	4FF\	4r	4r
=65	=65	=65	=65
4r	4GG\	4r	4r
4G/	4G\	4b-/	2.d\
2A/	4F\	4a/	.
.	4D\	4f/	.
=66	=66	=66	=66
2G/	4BB-\	4.e/	4d\
.	4AA\	.	4c#X\
.	.	8f/	.
2F/	4D\	2d/	2d\
.	4DD\	.	.
*v	*v	*	*
*	*v	*v
!!LO:PB:g=original
=67||	=67||
*k[]	*k[]
*M2/4	*M2/4
!LO:TX:t=P:problem:all\right:global	!
8E\	8e/
=68	=68
8A\L	8c/L 8e/ 8a/
8A\J	8c/J 8e/ 8a/
8E\L	8e/L 8g/ 8b/
!LO:TX:t=P:problem:all\middle:global	!
8E\J	8e/J 8g/ 8b/
=69	=69
.	8qdd/
4C\	4e/ 4g/ 4cc/
8D\L	8d/L 8f/ 8b/
8D#X\J	8c/J 8f/ 8a/
=70	=70
*	*^
!LO:TX:t=P:problem:8\right	!	!
8E\L	8B/L 8e/ 8g#X/	4ryy
8C\	8A/ 8e/ 8a/	.
!	!	!LO:TX:t=P:problem:4\right
8Dn\	8A 8d/ 8f/	4A\
8BB\J	16gn/L	.
.	16f/JJ	.
*	*v	*v
=71	=71
!LO:TX:t=P:problem:8\right	!
(>8E\L	4.G#X/ 4.d/ 4.e/
8BB\	.
8EE\J)	.
!LO:TX:t=P:problem:8\left	!
8E\	8e/
=72	=72
8A\L	8c/L 8e/ 8a/
8A\J	8c/J 8e/ 8a/
!LO:TX:t=P:problem:all\left:global	!
8G\L	8d/L 8g/ 8b/
8G\J	8d/J 8g/ 8b/
=73	=73
.	(<8qdd/
4C\	4e/) 4a/ 4cc/
8D\L	8d/L 8f#X/ 8b/
8D#X\J	8c/J 8f#/ 8a/
!!LO:LB:g=original
=74	=74
!LO:TX:t=P:problem:all\middle:global	!
8E\L	8B/L 8e/ 8g/
8GG\	8B/ 8e/ 8b/
8AA\	8c/ 8e/ 8a/
8BB\J	16A/L 16d#X/ 16f#X/
.	16g/JJ
=75	=75
8E\L	4.G/ 4.B/ 4.e/
8BB\	.
8EE\J	.
!LO:TX:t=P:problem:all\left:global	!
8G\	8g/
=76||	=76||
*^	*^
8C\L 8G\ 8c\	4ryy	8e/L 8g/ 8ee/	4ryy
8C\J 8G\ 8c\	.	8e/J 8g/ 8ee/	.
.	.	(<8qee/	.
8c/L	4F\	8a/L)	4e\
16B/L	.	16b/L	.
16A/JJ	.	16cc/JJ	.
*v	*v	*	*
*	*v	*v
=77	=77
(>8BB\L 8F\ 8B\	8d/L 8a/ 8dd/
.	(<8qdd/
!LO:TX:t=P:problem:8\middle	!
8E\	16d/L) 16g#X/ 16cc/
.	16b/J
!LO:TX:t=P:problem:8\right:global	!
8AA\J) 8E\ 8A\	8c/J 8a/ 8cc/
(>8E\	(>8e/
=78	=78
*^	*^
!LO:TX:t=P:problem:all\left:global	!	!	!
8AA\L) 8E\ 8A\	4ryy	8c/L) 8e/ 8cc/	4ryy
8AA\J 8E\ 8A\	.	8c/J 8e/ 8cc/	.
.	.	(<8qcc/	.
8A/L	4D\	8f/L)	4c\
16G/L	.	16g/L	.
16F/JJ	.	16a/JJ	.
*v	*v	*	*
*	*v	*v
=79	=79
(>8GG\L 8D\ 8G\	8B-X/L 8f/ 8b-X/
.	(<8qb-/
8C\	16B-/L) 16e/ 16a/
.	16g/J
8FF\J) 8C\ 8F\	8A/J 8f/ 8a/
(>8E\	(>8e/
!!LO:LB:g=original
=80	=80
8A\L)	8c/L) 8e/ 8a/
8A\J	8c/J 8e/ 8a/
8E\L	8e/L 8g/ 8b/
8E\J	8e/J 8g/ 8b/
=81	=81
.	(<8qdd/
4C\	4e/) 4g/ 4cc/
8D\L	8d/L 8f/ 8b/
8D#X\J	8c/J 8f/ 8a/
=82	=82
8E\L	8B/L 8e/ 8g#X/
8C\	8A/ 8e/ 8a/
8BB\	8d/ 8a/ 8b/
!LO:TX:t=P:problem:8\right:global	!
8E\J	16d/L 16g#/ 16cc/
.	16b/JJ
=83	=83
8AA\L	4.c/ 4.e/ 4.a/
8EE\	.
8AAA\J	.
==	==
*-	*-
!!!system-decoration: [{g1}]
!!!ENC: Filip Voros
!!!END: 2021-11-10
!!!EED: Jędrzej Mróz
!!!ESR: 2021-11-12
!!!RDF**kern: > = above
!!!RDF**kern: < = below
